X:9
T:La Ferlande
O:vlaanderen
C:Trad.
Z:Bart Vanhaverbeke 
L:1/8
M:6/8
K:C
P:Voorspel (AAB)x3 AA
P:A
g | c2 c cde | d2 G G2 g | c2 c cde | d2 G G2 G | ABc cdB | c2 c c2 G | ABc cdB | c2 c c2 g :||
P:B
e2 a g2 f | ede c2 g | e2 a g2 f | ede ccB | A2 G GcB | A2 G GcB | A2 G A2 B | c2 G G2 g |
(~g3 g2) g | (~g3 g2) g | gfg agf | g2 g g2 B | GAB cBA | d2 d d2 G | GAB cBA | d2 d d2 g |
gfe dcB | c2 c c2 g | gfe dcB | c2 c c2 G | cBc dcd | e2 c c2 G | cBc dcd | e2 c cgf |
~e2 d dgf | ~e2 d dgf | e2 d e2 f | g2 d d2 d | (~d3 d2) d | (~d3 d2) d | dcd edc | d2 d d2 |]
